SwissTransferResources/Images.xcassets/Illustrations/ghost-magnifying-glass-question-mark.imageset/ghost-magnifying-glass-question-mark-dark.svg

<svg height="157pt" stroke-miterlimit="10" style="fill-rule:nonzero;clip-rule:evenodd;stroke-linecap:round;stroke-linejoin:round" viewBox="0 0 265 157" width="265pt" xml:space="preserve" xmlns="http://www.w3.org/2000/svg"><path d="M0 136.469c0-11.339 59.1168-20.531 132.041-20.531 72.924 0 132.041 9.192 132.041 20.531 0 11.339-59.117 20.531-132.041 20.531C59.1168 157 0 147.808 0 136.469Z" fill="#014958"/><path d="M90.6292 61.0241c2.2863-21.1479 20.1398-37.1755 41.4108-37.1755 21.272 0 39.125 16.0276 41.412 37.1756l8.902 82.3448-9.728-3.601a80.5027 80.5027 0 0 0-27.945-5.007H82.6576l7.9716-73.7369Z" fill="#2b383b" stroke="#dce4e5" stroke-linecap="butt" stroke-linejoin="miter"/><clipPath clip-rule="nonzero" id="a"><path d="M0 136.469c0-11.339 59.1168-20.531 132.041-20.531 72.924 0 132.041 9.192 132.041 20.531 0 11.339-59.117 20.531-132.041 20.531C59.1168 157 0 147.808 0 136.469Z"/></clipPath><g clip-path="url(#a)"><path d="M90.6301 61.0242c2.2863-21.148 20.1399-37.1756 41.4109-37.1756 21.271 0 39.125 16.0276 41.411 37.1756l11.834 109.4648-12.383-17.004c-6.863-9.423-20.917-9.423-27.78 0-6.463 8.875-19.7 8.875-26.163 0-6.863-9.423-20.918-9.423-27.7806 0l-12.3833 17.004 11.834-109.4648Z" fill="#2b383b" stroke="#dce4e5" stroke-linecap="butt" stroke-linejoin="miter"/></g><path d="M93.2944 14.9595c.7155 1.2798.3175 2.6869-.2672 3.7918-.5339 1.0058-.6947 1.4139-.2805 2.1548l.2334.4176-1.2528.7004-.256-.458c-.6327-1.1316-.359-1.9388.36-3.2778.4519-.8362.703-1.6838.2135-2.5594-.4745-.8487-1.5376-.9793-2.5749-.3994-1.5088.8435-1.4063 2.1653-1.0008 3.0172l-1.2259.6853c-.9656-1.7587-.2316-3.672 1.6813-4.7414 1.5222-.851 3.4587-.9611 4.3699.6689Zm-.0917 9.9883-.8661-1.5492 1.5492-.8661.8661 1.5492-1.5492.8661Z" fill="#ff8500"/><path d="M162.742 1.8544c-.004.9915-.705 1.6882-1.417 2.1449-.648.415-.879.6021-.881 1.1761l-.001.3236-.97-.0035.001-.3549c.003-.8766.432-1.2612 1.301-1.8113.544-.3424.973-.7583.975-1.4367.003-.6575-.58-1.0875-1.384-1.0903-1.169-.0042-1.547.8084-1.591 1.445l-.95-.0035c.015-1.3567 1.083-2.24 2.565-2.2346 1.179.0042 2.356.5824 2.352 1.8452Zm-3.371 5.8532.004-1.2001 1.2.0043-.004 1.2001-1.2-.0043Z" fill="#ffaa4c"/><path d="M179.528 15.0453c-.631 1.7603-2.318 2.5565-3.871 2.9198-1.414.329-1.942.5163-2.307 1.5355l-.206.5744-1.724-.6182.226-.6301c.559-1.5565 1.564-1.9696 3.455-2.3999 1.183-.2658 2.208-.7345 2.641-1.939.418-1.1674-.347-2.2994-1.774-2.8113-2.075-.7445-3.261.4615-3.74 1.5653l-1.687-.6049c.883-2.4023 3.338-3.2994 5.97-2.3554 2.094.7512 3.822 2.5216 3.017 4.7638Zm-9.684 8.2801.765-2.131 2.131.7645-.765 2.131-2.131-.7645Z" fill="#ff8500"/><path d="M109 70c2.209 0 4 1.7909 4 4v2c0 2.2091-1.791 4-4 4s-4-1.7909-4-4v-2c0-2.2091 1.791-4 4-4Z" fill="#67dd95"/><path d="M146.349 88.5292c-1.45-1.4961-1.373-3.8964.17-5.2963 1.544-1.4 3.94-1.243 5.288.3464l16.106 18.9947c.997 1.174.882 2.927-.259 3.962-1.141 1.035-2.897.979-3.969-.127l-17.336-17.8798Z" fill="#3c4f52" stroke="#dce4e5" stroke-linecap="butt" stroke-linejoin="miter"/><path d="M125.945 85.8807c-6.315-6.9624-5.79-17.7253 1.173-24.0396 6.962-6.3144 17.725-5.7891 24.039 1.1732 6.315 6.9624 5.789 17.7253-1.173 24.0397-6.962 6.3143-17.725 5.789-24.039-1.1733Z" fill="#3c4f52" stroke="#dce4e5" stroke-linecap="butt" stroke-linejoin="miter"/><path d="M128.171 83.8624c-5.2-5.7335-4.768-14.5967.966-19.7966 5.733-5.1999 14.597-4.7673 19.796.9662 5.2 5.7335 4.768 14.5967-.966 19.7966-5.733 5.1999-14.597 4.7673-19.796-.9662Z" fill="#ff9802"/><path d="M132.806 69.7017c2.209 0 4 1.7909 4 4v2c0 2.2091-1.791 4-4 4s-4-1.7909-4-4v-2c0-2.2091 1.791-4 4-4Z" fill="#ffc166"/><path d="m84.5002 120.5 14.0073-7.003c3.4875-1.744 5.1255-5.816 3.8165-9.489-1.43-4.0129-5.842-6.1072-9.8553-4.6773l-6.0315 2.1493" fill="none" stroke="#dce4e5" stroke-linecap="butt" stroke-linejoin="miter"/><path d="M93.0151 127.855 92.0525 85.5H118.03l-.963 42.355-4.93-4.716-.319-.306-.343.279-6.434 5.243-6.4341-5.243-.3424-.279-.3191.306-4.9303 4.716Z" fill="#333" stroke="#dce4e5" stroke-linecap="butt" stroke-linejoin="miter"/><path d="M157.98 97.3492c2.751-2.9543 7.376-3.1193 10.33-.3686l9.99 9.3014-9.961 10.699-9.99-9.302c-2.954-2.751-3.119-7.376-.369-10.3298Z" fill="#2b383b"/><path d="m178.3 106.282-9.99-9.3014c-2.954-2.7507-7.579-2.5857-10.33.3686-2.75 2.9538-2.585 7.5788.369 10.3298l9.99 9.302" fill="none" stroke="#dce4e5" stroke-linecap="butt" stroke-linejoin="miter"/></svg>

<svg width="265" height="157" viewBox="0 0 265 157" fill="none" xmlns="http://www.w3.org/2000/svg">
<ellipse cx="132.041" cy="136.469" rx="132.041" ry="20.5308" fill="#014958"/>
<path d="M90.6292 61.0241C92.9155 39.8762 110.769 23.8486 132.04 23.8486C153.312 23.8486 171.165 39.8762 173.452 61.0242L182.354 143.369L172.626 139.768C163.681 136.457 154.219 134.761 144.681 134.761H132.04H105.069H82.6576L90.6292 61.0241Z" fill="#2B383B" stroke="#DCE4E5"/>
<mask id="mask0_4439_5784" style="mask-type:alpha" maskUnits="userSpaceOnUse" x="0" y="115" width="265" height="42">
<ellipse cx="132.041" cy="136.469" rx="132.041" ry="20.5308" fill="#E3F6DC"/>
</mask>
<g mask="url(#mask0_4439_5784)">
<path d="M90.6301 61.0242C92.9164 39.8762 110.77 23.8486 132.041 23.8486C153.312 23.8486 171.166 39.8762 173.452 61.0242L185.286 170.489L172.903 153.485C166.04 144.062 151.986 144.062 145.123 153.485C138.66 162.36 125.423 162.36 118.96 153.485C112.097 144.062 98.042 144.062 91.1794 153.485L78.7961 170.489L90.6301 61.0242Z" fill="#2B383B" stroke="#DCE4E5"/>
</g>
<path d="M93.2944 14.9595C94.0099 16.2393 93.6119 17.6464 93.0272 18.7513C92.4933 19.7571 92.3325 20.1652 92.7467 20.9061L92.9801 21.3237L91.7273 22.0241L91.4713 21.5661C90.8386 20.4345 91.1123 19.6273 91.8313 18.2883C92.2832 17.4521 92.5343 16.6045 92.0448 15.7289C91.5703 14.8802 90.5072 14.7496 89.4699 15.3295C87.9611 16.173 88.0636 17.4948 88.4691 18.3467L87.2432 19.032C86.2776 17.2733 87.0116 15.36 88.9245 14.2906C90.4467 13.4396 92.3832 13.3295 93.2944 14.9595ZM93.2027 24.9478L92.3366 23.3986L93.8858 22.5325L94.7519 24.0817L93.2027 24.9478Z" fill="#FF8500"/>
<path d="M162.742 1.85443C162.738 2.84588 162.037 3.54261 161.325 3.99926C160.677 4.41439 160.446 4.60142 160.444 5.17542L160.443 5.49895L159.473 5.49546L159.474 5.14063C159.477 4.26398 159.906 3.87937 160.775 3.32935C161.319 2.9869 161.748 2.57098 161.75 1.89262C161.753 1.23513 161.17 0.805143 160.366 0.80226C159.197 0.798066 158.819 1.61075 158.775 2.24722L157.825 2.24381C157.84 0.887125 158.908 0.00385672 160.39 0.00917374C161.569 0.0134049 162.746 0.591634 162.742 1.85443ZM159.371 7.70763L159.375 6.50745L160.575 6.51176L160.571 7.71194L159.371 7.70763Z" fill="#FFAA4C"/>
<path d="M179.528 15.0453C178.897 16.8056 177.21 17.6018 175.657 17.9651C174.243 18.2941 173.715 18.4814 173.35 19.5006L173.144 20.075L171.42 19.4568L171.646 18.8267C172.205 17.2702 173.21 16.8571 175.101 16.4268C176.284 16.161 177.309 15.6923 177.742 14.4878C178.16 13.3204 177.395 12.1884 175.968 11.6765C173.893 10.932 172.707 12.138 172.228 13.2418L170.541 12.6369C171.424 10.2346 173.879 9.33755 176.511 10.2815C178.605 11.0327 180.333 12.8031 179.528 15.0453ZM169.844 23.3254L170.609 21.1944L172.74 21.9589L171.975 24.0899L169.844 23.3254Z" fill="#FF8500"/>
<rect x="105" y="70" width="8" height="10" rx="4" fill="#67DD95"/>
<path d="M146.349 88.5292C144.899 87.0331 144.976 84.6328 146.519 83.2329C148.063 81.8329 150.459 81.9899 151.807 83.5793L167.913 102.574C168.91 103.748 168.795 105.501 167.654 106.536C166.513 107.571 164.757 107.515 163.685 106.409L146.349 88.5292Z" fill="#3C4F52" stroke="#DCE4E5"/>
<circle cx="138.551" cy="74.4475" r="17.0188" transform="rotate(-42.2058 138.551 74.4475)" fill="#3C4F52" stroke="#DCE4E5"/>
<circle cx="138.552" cy="74.4472" r="14.015" transform="rotate(-42.2058 138.552 74.4472)" fill="#FF9802"/>
<rect x="128.806" y="69.7017" width="8" height="10" rx="4" fill="#FFC166"/>
<path d="M84.5002 120.5L98.5075 113.497C101.995 111.753 103.633 107.681 102.324 104.008V104.008C100.894 99.9951 96.482 97.9008 92.4687 99.3307L86.4372 101.48" stroke="#DCE4E5"/>
<path d="M93.0151 127.855L92.0525 85.5H118.03L117.067 127.855L112.137 123.139L111.818 122.833L111.475 123.112L105.041 128.355L98.6069 123.112L98.2645 122.833L97.9454 123.139L93.0151 127.855Z" fill="#333333" stroke="#DCE4E5"/>
<path d="M157.98 97.3492C160.731 94.3949 165.356 94.2299 168.31 96.9806L178.3 106.282L168.339 116.981L158.349 107.679C155.395 104.928 155.23 100.303 157.98 97.3492Z" fill="#2B383B"/>
<path d="M178.3 106.282L168.31 96.9806C165.356 94.2299 160.731 94.3949 157.98 97.3492V97.3492C155.23 100.303 155.395 104.928 158.349 107.679L168.339 116.981" stroke="#DCE4E5"/>
</svg>
